X:31
T:Mist on the Glen
Z: id:dc-polka-25
M:2/4
L:1/8
K:G Major
G>A Bd|gf ed|eA AB|cd/c/ BA|!
G>A Bd|gf ed|ea ef|g2 g2:|!
ae ae|ae e>f|gd gd|gd d>g|!
ae ae|ae e>f|ge dB|A2 A2:|!

